Point/img/best3.svg

<svg width="120" height="129" viewBox="0 0 120 129" fill="none" xmlns="http://www.w3.org/2000/svg">
<path fill-rule="evenodd" clip-rule="evenodd" d="M70.838 2.45555C56.3698 1.01031 29.2743 -3.27122 17.2203 4.65562C5.05884 12.6531 2.78466 28.0242 0.439934 42.1333C-1.66564 54.8033 4.29472 66.6164 7.57549 79.0472C11.1396 92.5515 3.74394 109.959 14.0893 119.596C24.8846 129.652 51.4374 129.055 66.2198 126.963C80.1663 124.99 84.661 115.012 96.2221 107.162C108.115 99.0869 111.859 109.349 116.162 95.8643C120.469 82.3694 122.03 57.6053 116.162 44.681C111.038 33.3946 108.638 20.5876 98.863 12.7359C88.7574 4.61845 83.8682 3.75717 70.838 2.45555Z" fill="#E1E5F0"/>
<path d="M69.5016 50.3286C69.5016 45.0342 65.2096 40.7422 59.9152 40.7422C54.6207 40.7422 50.3287 45.0342 50.3287 50.3286V62.3116C50.3287 67.6061 54.6207 71.8981 59.9152 71.8981C65.2096 71.8981 69.5016 67.6061 69.5016 62.3116V50.3286Z" stroke="#00325A" stroke-width="4.79321" stroke-linecap="round" stroke-linejoin="round"/>
<path d="M74.2948 74.9945C72.4975 77.0368 70.2851 78.6722 67.8054 79.7913C65.3257 80.9105 62.6357 81.4877 59.9152 81.4845C57.1946 81.4877 54.5047 80.9105 52.025 79.7913C49.5453 78.6722 47.3329 77.0368 45.5355 74.9945" stroke="#00325A" stroke-width="4.79321" stroke-linecap="round" stroke-linejoin="round"/>
<path d="M59.9152 81.4845V88.6743" stroke="#00325A" stroke-width="4.79321" stroke-linecap="round" stroke-linejoin="round"/>
<path d="M55.1219 88.6743H64.7084" stroke="#00325A" stroke-width="4.79321" stroke-linecap="round" stroke-linejoin="round"/>
</svg>

<svg width="120" height="129" fill="none" xmlns="http://www.w3.org/2000/svg"><path fill-rule="evenodd" clip-rule="evenodd" d="M70.838 2.456C56.37 1.01 29.274-3.271 17.22 4.656 5.06 12.653 2.785 28.024.44 42.133c-2.106 12.67 3.855 24.483 7.135 36.914 3.565 13.505-3.831 30.912 6.514 40.549 10.796 10.056 37.348 9.459 52.13 7.367 13.947-1.973 18.442-11.951 30.003-19.801 11.893-8.075 15.637 2.187 19.94-11.298 4.307-13.495 5.868-38.259 0-51.183-5.124-11.286-7.524-24.093-17.299-31.945-10.106-8.118-14.995-8.979-28.025-10.28z" fill="#E1E5F0"/><path d="M69.502 50.329a9.586 9.586 0 00-19.173 0v11.983a9.586 9.586 0 1019.173 0V50.329zm4.793 24.666a19.124 19.124 0 01-14.38 6.49 19.125 19.125 0 01-14.38-6.49m14.38 6.489v7.19m-4.793 0h9.586" stroke="#00325A" stroke-width="4.793" stroke-linecap="round" stroke-linejoin="round"/></svg>
